X: 643
T: Red Lyon Hornpipe
M:3/2
L:1/8
S: 8: MCJLSH3 http://www.cpartington.plus.com/links/Walsh.abc
Z: Pete Stewart 2004
B: Walsh "Third Book of the most Celebrated jiggs, Lancashire hornpipes, ..."
K:GMin
BdBd DEFDE2C2 | BdBd FBAcB2B,2 | BdBd DEFDE2gf | edcB FBAcB2B,2 ||
Bdfd BdcBA2F2 | DFBF GFGED2B,2 | Bdfd BdcB A2F2 | DFBF DBAcB4 ||

%%sep 1 1 500
%%sep 1 1 500
